build/img/features/icon-4.svg

<svg width="81" height="81" viewBox="0 0 81 81" fill="none" xmlns="http://www.w3.org/2000/svg">
<path fill-rule="evenodd" clip-rule="evenodd" d="M39.495 2.76054C41.0892 2.51089 42.429 2.93155 43.4528 3.66676C45.0268 4.79681 45.4964 7.06852 49.1588 8.00861C53.1222 9.02591 54.6712 6.438 57.6315 7.14123C59.0625 7.48089 60.0545 8.21538 60.7289 9.07163C61.6861 10.2869 61.6252 11.1695 61.9719 12.8545C62.3745 14.8124 63.4467 16.2465 64.8917 17.383C66.9195 18.9777 68.804 18.5931 70.5114 19.2985C72.5211 20.1289 74.4144 22.9006 73.3789 25.8947C72.8707 27.3632 72.3829 28.1432 72.4591 29.9983C72.5534 32.2885 73.7272 34.4946 75.4727 35.766C75.7218 35.9472 75.9411 36.0855 76.1755 36.3174C76.9594 37.0915 77.6923 37.9366 77.9272 39.5233C78.159 41.0901 77.7025 42.4897 76.9767 43.4769C75.862 44.9926 73.5617 45.5497 72.6594 49.2122C71.6552 53.2885 74.2806 54.5332 73.5278 57.687C73.1844 59.1259 72.4103 60.0923 71.5647 60.7493C69.2904 62.5168 67.6934 61.0073 64.4795 63.6255C61.6345 65.9432 62.1093 68.8809 61.36 70.5548C60.4765 72.5302 57.7509 74.4535 54.7295 73.3445C53.2991 72.8196 52.4571 72.3485 50.6218 72.4551C49.1259 72.542 47.8815 72.9888 46.8377 73.688C44.2361 75.4301 44.4677 77.382 41.1112 77.9206C39.5438 78.1724 38.1694 77.6262 37.166 76.9289C36.252 76.2936 35.6285 75.1281 34.7499 74.3225C33.1278 72.8357 29.8925 71.8767 27.1143 72.8812C25.7146 73.3876 24.6894 73.9743 22.9226 73.5094C21.5399 73.1453 20.5425 72.3362 19.9124 71.4977C18.2481 69.2848 19.6254 67.5792 17.0255 64.4233C14.691 61.5895 11.654 62.0677 10.0887 61.318C8.9878 60.7906 8.08557 59.9303 7.57123 58.8144C6.02299 55.4558 8.37092 53.9932 8.24162 50.6698C8.16324 48.6542 7.47153 47.4533 6.51791 46.1357C5.72485 45.04 4.37387 44.6053 3.39918 42.976C2.321 41.1728 2.55544 38.8812 3.73308 37.1912C4.04803 36.7388 4.50246 36.2911 4.99573 35.9422C7.60083 34.1007 9.01361 30.7169 7.82437 27.1636C7.34958 25.7445 6.75661 24.9335 7.15397 23.1076C7.47958 21.6104 8.23002 20.6585 9.05553 19.9922C10.361 18.9387 11.0336 19.0974 12.816 18.7257C14.2418 18.4285 15.2331 17.8406 16.1438 17.1222C19.0125 14.86 18.5986 11.8204 19.2962 10.2289C20.1873 8.19549 22.701 6.27362 25.8467 7.29661C27.3874 7.7978 27.9981 8.26868 29.9366 8.23007C31.4214 8.2007 32.7456 7.66919 33.7814 7.05336C36.2226 5.60118 36.1887 3.27855 39.495 2.76054ZM39.2762 0.431988C35.2782 0.971077 34.529 3.47443 32.975 4.7402C29.8731 7.26558 27.0296 4.81931 24.742 4.67554C21.8622 4.49434 19.0236 6.00384 17.7037 8.21538C16.7619 9.79404 16.8471 10.2988 16.4692 12.2507C16.1794 13.746 15.2494 14.8979 14.3721 15.5182C12.004 17.193 9.85285 15.8597 7.01023 18.7004C4.94102 20.7677 4.12925 23.7381 5.06677 26.5698C5.56643 28.0797 6.23398 28.9128 5.77553 30.8543C5.00425 34.121 2.82611 33.6492 1.16444 36.8797C-0.485856 40.0875 0.443133 44.1082 3.32175 46.3995C3.9031 46.8619 4.25879 47.0748 4.73666 47.6632C5.4871 48.5879 6.06277 50.1085 5.85628 51.6959C5.6576 53.2246 4.85672 54.0974 4.70753 55.903C4.42787 59.2837 6.35831 61.71 8.20089 62.9517C10.7473 64.667 13.4213 63.4576 15.5056 66.2774C16.5561 67.6988 16.3293 68.4669 16.7766 70.2836C17.8098 74.4765 22.4246 76.9538 26.5247 75.642C28.1056 75.1363 28.7999 74.4895 30.8225 74.9064C32.3454 75.2207 33.3748 76.1352 34.0409 77.0397C36.7902 80.7738 41.7106 81.3728 45.0834 78.7153C46.4841 77.6115 46.58 76.8583 47.6376 75.995C50.8631 73.3606 53.5693 75.8005 55.8199 75.9822C57.3412 76.1049 58.9998 75.7588 60.1296 75.0963C61.4952 74.2957 62.0915 73.7157 62.9208 72.5293C64.7433 69.9221 63.4046 67.3454 66.242 65.2219C68.3924 63.6125 70.976 64.6317 73.6401 62.072C75.2766 60.4992 76.7185 57.3533 75.6349 54.1045C75.1244 52.5732 74.4684 51.771 74.9325 49.8067C75.6965 46.5741 78.0191 46.8732 79.5308 43.7671C81.1797 40.38 80.2799 36.6817 77.3823 34.2738C76.7488 33.7475 76.4829 33.6059 75.9664 33.0111C75.1821 32.1082 74.6346 30.5653 74.8471 28.9523C75.0464 27.4371 75.8573 26.5425 75.9932 24.7232C76.239 21.4349 74.2766 18.7653 72.4018 17.6558C69.5599 15.9739 67.0654 17.1573 65.1181 14.3105C63.4775 11.9123 64.8714 9.60716 61.6541 6.6417C61.5191 6.51758 61.4119 6.45269 61.2778 6.34539C59.2276 4.70586 56.5865 4.22575 54.0586 5.06493C52.5148 5.57749 51.7019 6.19096 49.7532 5.73998C48.2296 5.3873 47.2807 4.42992 46.5947 3.53625C45.2042 1.72429 42.8887 -0.0549923 39.2765 0.431514L39.2762 0.431988Z" fill="#02345D" stroke="#02345D" stroke-width="0.7"/>
<path fill-rule="evenodd" clip-rule="evenodd" d="M30.6866 51.8413C30.5931 48.6497 30.7917 44.931 30.6793 41.9629C30.6399 40.9217 29.6302 40.2298 28.7993 40.9148C28.1234 41.4719 28.3361 42.6493 28.3361 43.7242V53.7949L23.2386 53.812V32.6996L28.3358 32.7385C28.3375 33.6719 28.3361 34.5962 28.3361 35.5204C28.3361 36.419 28.1753 37.4963 28.7415 37.9707C29.3323 38.4652 30.2312 38.2319 30.5402 37.6327C30.7837 37.1613 30.6835 35.5616 30.679 34.9339C30.6743 34.257 30.5758 34.2432 30.9267 33.8344C31.1453 33.5796 31.2916 33.3441 31.5057 32.99L38.9935 20.6405C39.4074 20.059 40.1624 19.7904 40.8072 20.374C42.9444 22.307 41.5647 24.9376 40.8711 26.6197C40.5898 27.3021 40.3379 27.9232 40.0681 28.5788C39.8462 29.1179 39.3904 30.0743 39.2464 30.6106C38.6887 32.6897 41.7987 32.1513 43.2413 32.1513L57.3019 32.1674C58.1906 32.2908 58.3671 33.0047 58.3647 33.9287C58.3588 36.4583 57.8814 36.1061 54.8754 36.1061C53.0063 36.1061 51.1367 36.1064 49.2673 36.1061C48.2919 36.1059 47.4475 35.995 47.1098 36.7944C46.7453 37.6561 47.3447 38.3717 48.097 38.4423C50.175 38.6374 55.1673 38.2978 56.4558 38.4669C57.3512 38.5844 57.5342 39.2964 57.5319 40.2071C57.5257 42.7616 57.0038 42.4059 54.1216 42.4059C52.2257 42.4059 50.3209 42.3874 48.4262 42.404C47.582 42.4113 46.9308 42.8087 47.0226 43.7107C47.1212 44.6759 47.9116 44.7545 48.8487 44.7512C50.7459 44.7444 52.6437 44.7571 54.5408 44.75C55.4375 44.7467 56.1409 44.9087 56.2855 45.7458C56.4134 46.485 56.4108 47.8069 56.0009 48.2828C55.4797 48.8877 54.4678 48.7051 53.5358 48.7051L47.9763 48.7278C47.3111 48.8377 46.7139 49.6438 47.1543 50.4396C47.5564 51.1658 48.3438 51.0507 49.2673 51.0505C50.216 51.0505 51.1646 51.0505 52.1133 51.0505C53.007 51.0505 54.0236 50.8993 54.4924 51.4749C54.8713 51.9401 54.8756 53.2729 54.7591 54.0001C54.6144 54.9051 53.8758 55.0086 52.9506 55.0055C48.8532 54.992 42.8184 55.2722 39.2658 54.5614C36.136 53.9354 33.2117 52.4557 30.6859 51.8416L30.6866 51.8413ZM29.934 31.0142C28.9491 30.4466 29.1699 30.3917 27.674 30.3889C26.4319 30.3862 23.0198 30.1672 22.0844 30.6835C20.4952 31.5608 20.8942 33.5355 20.8942 35.3527V52.933C20.8909 56.6806 22.916 56.1569 26.5022 56.1569C27.8958 56.1569 30.1654 56.4724 30.5966 54.3094C31.6281 54.5455 33.0163 55.0981 34.0348 55.4451C39.0278 57.1462 40.2005 57.3495 45.8362 57.3495C47.523 57.3495 53.581 57.5439 54.7342 57.1451C57.1198 56.3199 57.6905 53.5098 56.7734 50.6727C57.256 50.2414 57.4364 50.3205 57.9339 49.6279C58.7824 48.4481 58.701 47.4381 58.6569 45.9824C58.6287 45.0601 58.4353 44.9142 58.2288 44.2266C58.9148 43.5603 59.6953 43.0968 59.8511 41.5278C59.9068 40.9684 59.9049 39.9664 59.8601 39.4027C59.7907 38.5318 59.5267 38.3004 59.3176 37.6782C59.899 37.2665 60.4278 36.6009 60.6309 35.5872C60.7794 34.847 60.7493 33.0651 60.549 32.3562C59.9072 30.085 57.982 29.8055 56.1311 29.8059C51.4682 29.8071 46.8055 29.8059 42.1423 29.8059C42.4729 27.7924 44.9428 25.0865 44.1566 21.7179C43.4379 18.6388 40.7163 16.6771 38.1836 18.2354C37.149 18.8721 36.6444 19.9766 35.9245 21.1696C35.4777 21.91 30.1831 30.7709 29.9338 31.0142H29.934Z" fill="#02345D" stroke="#02345D" stroke-width="0.7"/>
<path fill-rule="evenodd" clip-rule="evenodd" d="M10.3461 41.5974C9.17395 41.9577 9.4979 43.1818 9.64614 44.3424C10.3847 50.1208 12.7218 55.4297 16.3096 59.8646C24.5678 70.073 38.6248 74.0401 51.2615 69.3248C55.1529 67.8728 58.0296 65.9223 60.6105 63.7721C60.7953 63.6181 60.8966 63.4819 61.0858 63.3294C61.8857 62.6847 63.5834 60.8535 64.2441 60.0435C67.8743 55.5939 70.1401 50.6014 71.0407 44.4854C71.2043 43.3741 71.514 42.0738 70.5176 41.6417C69.9767 41.4072 69.4292 41.6256 69.1618 41.9397C68.8497 42.3061 68.8625 42.8637 68.8064 43.4153C68.0472 50.8984 64.1143 57.9369 58.3448 62.5961C56.9647 63.7107 55.6135 64.5947 53.8675 65.5696C46.7115 69.5642 37.2141 70.0526 29.5658 66.8626C25.6741 65.2394 22.9849 63.2737 20.5349 60.9952C15.9923 56.7699 12.6221 50.188 11.9268 43.647C11.8697 43.111 11.8728 41.1277 10.3459 41.597L10.3461 41.5974Z" fill="#02345D" stroke="#02345D" stroke-width="0.7"/>
<path fill-rule="evenodd" clip-rule="evenodd" d="M38.3767 9.4393C33.5579 9.79198 30.5064 10.8019 26.6432 12.5535C24.8347 13.3733 21.3437 15.6575 20.0169 16.9775C19.6553 17.3373 19.3401 17.4989 19.045 17.8468C18.6877 18.2691 18.4528 18.5048 18.0921 18.8196C17.1799 19.6154 15.4991 21.8021 14.7787 22.8725C13.759 24.3867 12.9319 25.8448 12.0995 27.6402C10.9261 30.1713 10.0111 33.4366 9.64217 36.317C9.50222 37.4108 9.22113 38.8358 10.3822 39.0885C11.9363 39.427 11.8629 37.6027 11.9219 37.0079C12.3943 32.2646 14.3968 27.3529 17.1117 23.6143C18.2063 22.1072 19.3739 20.7858 20.5852 19.6382C29.5163 11.1755 42.9061 9.17425 53.8614 15.1033C56.753 16.668 59.451 18.7831 61.6196 21.156C61.8065 21.3604 61.8716 21.4899 62.0764 21.7059C64.3216 24.0696 66.3546 28.0597 67.4576 31.1407C68.1214 32.9946 68.5701 35.1917 68.8027 37.2723C68.8664 37.8403 68.8334 38.304 69.1827 38.7079C69.4844 39.0563 69.9273 39.2325 70.4977 39.0113C71.5397 38.6084 71.1911 37.2765 71.0192 36.115C70.236 30.8191 68.196 25.7157 65.0858 21.7102C63.8416 20.1081 62.1198 18.1367 60.5632 16.8586C54.4364 11.8266 46.9296 8.81305 38.3769 9.4393H38.3767Z" fill="#02345D" stroke="#02345D" stroke-width="0.7"/>
</svg>

<svg xmlns="http://www.w3.org/2000/svg" width="81" height="81" fill="none" viewBox="0 0 81 81"><path fill="#02345D" fill-rule="evenodd" stroke="#02345D" stroke-width=".7" d="M39.495 2.76c1.594-.25 2.934.172 3.958.907 1.574 1.13 2.043 3.402 5.706 4.342 3.963 1.017 5.512-1.571 8.473-.868 1.43.34 2.422 1.074 3.097 1.93.957 1.216.896 2.098 1.243 3.784.402 1.957 1.475 3.392 2.92 4.528 2.028 1.595 3.912 1.21 5.62 1.916 2.01.83 3.902 3.602 2.867 6.596-.508 1.468-.996 2.248-.92 4.103.094 2.29 1.268 4.497 3.014 5.768.249.181.468.32.703.551.783.775 1.516 1.62 1.751 3.206a5.35 5.35 0 0 1-.95 3.954c-1.115 1.516-3.415 2.073-4.318 5.735-1.004 4.076 1.622 5.321.869 8.475a5.35 5.35 0 0 1-1.963 3.062c-2.275 1.768-3.872.258-7.085 2.877-2.846 2.317-2.37 5.255-3.12 6.929-.883 1.975-3.61 3.898-6.63 2.79-1.43-.525-2.273-.996-4.108-.89-1.496.087-2.74.534-3.784 1.233-2.602 1.742-2.37 3.694-5.727 4.233-1.567.251-2.942-.295-3.945-.992-.914-.635-1.537-1.8-2.416-2.606-1.622-1.487-4.858-2.446-7.636-1.442-1.4.507-2.425 1.093-4.191.628a5.5 5.5 0 0 1-3.01-2.011c-1.665-2.213-.288-3.919-2.887-7.075-2.335-2.834-5.372-2.355-6.937-3.105-1.101-.527-2.003-1.388-2.518-2.504-1.548-3.358.8-4.82.67-8.144-.078-2.016-.77-3.217-1.723-4.534-.793-1.096-2.144-1.53-3.119-3.16-1.078-1.803-.844-4.095.334-5.785.315-.452.77-.9 1.263-1.249 2.605-1.841 4.018-5.225 2.828-8.778-.474-1.42-1.067-2.23-.67-4.056.326-1.498 1.076-2.45 1.902-3.116 1.305-1.053 1.978-.895 3.76-1.266 1.426-.297 2.417-.885 3.328-1.604 2.869-2.262 2.455-5.302 3.152-6.893.891-2.034 3.405-3.955 6.55-2.932 1.541.5 2.152.972 4.09.933 1.485-.03 2.81-.56 3.845-1.177 2.442-1.452 2.408-3.774 5.714-4.292ZM39.276.433c-3.998.54-4.747 3.042-6.301 4.308-3.102 2.526-5.945.08-8.233-.064-2.88-.182-5.718 1.328-7.038 3.54-.942 1.578-.857 2.083-1.235 4.035a5.35 5.35 0 0 1-2.097 3.267c-2.368 1.675-4.52.342-7.362 3.182-2.069 2.068-2.88 5.038-1.943 7.87.5 1.51 1.167 2.343.709 4.284-.772 3.267-2.95 2.795-4.612 6.026-1.65 3.207-.72 7.228 2.158 9.52.581.462.937.675 1.415 1.263.75.925 1.326 2.446 1.12 4.033-.2 1.529-1 2.401-1.15 4.207-.28 3.38 1.651 5.807 3.494 7.049 2.546 1.715 5.22.506 7.305 3.325 1.05 1.422.823 2.19 1.27 4.007 1.034 4.192 5.649 6.67 9.749 5.358 1.58-.506 2.275-1.152 4.298-.736 1.522.315 2.552 1.23 3.218 2.134 2.75 3.734 7.67 4.333 11.042 1.675 1.401-1.103 1.497-1.857 2.555-2.72 3.225-2.634 5.931-.195 8.182-.013 1.521.123 3.18-.223 4.31-.886 1.365-.8 1.962-1.38 2.79-2.567 1.823-2.607.485-5.184 3.322-7.307 2.15-1.61 4.734-.59 7.398-3.15 1.637-1.573 3.079-4.719 1.995-7.968-.51-1.53-1.167-2.333-.703-4.297.764-3.233 3.087-2.934 4.599-6.04 1.649-3.387.749-7.085-2.149-9.493-.633-.526-.9-.668-1.416-1.263-.784-.903-1.331-2.446-1.119-4.059.2-1.515 1.01-2.41 1.146-4.229.246-3.288-1.716-5.958-3.591-7.067-2.842-1.682-5.337-.499-7.284-3.345-1.64-2.399-.247-4.704-3.464-7.67-.135-.123-.242-.188-.376-.296-2.05-1.64-4.691-2.12-7.22-1.28-1.543.512-2.356 1.126-4.305.675-1.523-.353-2.472-1.31-3.158-2.204-1.39-1.812-3.706-3.591-7.318-3.104Z" clip-rule="evenodd"/><path fill="#02345D" fill-rule="evenodd" stroke="#02345D" stroke-width=".7" d="M30.687 51.841c-.094-3.191.105-6.91-.008-9.878-.04-1.041-1.049-1.733-1.88-1.048-.676.557-.463 1.734-.463 2.81v10.07l-5.097.017V32.7l5.097.038c.002.934 0 1.858 0 2.782 0 .899-.16 1.976.406 2.45.59.495 1.49.262 1.798-.337.244-.472.143-2.071.139-2.7-.005-.676-.103-.69.248-1.099.218-.254.365-.49.579-.844l7.487-12.35c.414-.581 1.17-.85 1.814-.266 2.137 1.933.758 4.564.064 6.246-.281.682-.533 1.303-.803 1.959-.222.539-.678 1.495-.822 2.032-.557 2.079 2.553 1.54 3.995 1.54l14.06.016c.89.124 1.066.838 1.064 1.762-.006 2.53-.484 2.177-3.49 2.177h-5.608c-.975 0-1.82-.111-2.157.688-.365.862.235 1.578.987 1.648 2.078.195 7.07-.144 8.359.025.895.117 1.078.83 1.076 1.74-.006 2.555-.528 2.199-3.41 2.199-1.896 0-3.801-.019-5.696-.002-.844.007-1.495.405-1.403 1.307.098.965.889 1.044 1.826 1.04 1.897-.007 3.795.006 5.692-.001.897-.003 1.6.159 1.745.996.127.739.125 2.06-.285 2.537-.521.605-1.533.422-2.465.422l-5.56.023c-.665.11-1.262.916-.822 1.712.402.726 1.19.61 2.113.61h2.846c.894 0 1.91-.15 2.38.425.378.465.383 1.798.266 2.525-.145.905-.883 1.009-1.808 1.005-4.098-.013-10.133.267-13.685-.444-3.13-.626-6.054-2.105-8.58-2.72Zm-.753-20.827c-.985-.567-.764-.622-2.26-.625-1.242-.003-4.654-.222-5.59.294-1.589.878-1.19 2.852-1.19 4.67v17.58c-.003 3.748 2.022 3.224 5.608 3.224 1.394 0 3.663.315 4.095-1.848 1.031.236 2.42.79 3.438 1.136 4.993 1.701 6.166 1.904 11.801 1.904 1.687 0 7.745.195 8.898-.204 2.386-.825 2.956-3.635 2.04-6.472.482-.432.662-.352 1.16-1.045.848-1.18.767-2.19.723-3.646-.028-.922-.222-1.068-.428-1.755.686-.667 1.466-1.13 1.622-2.7.056-.559.054-1.56.01-2.124-.07-.871-.334-1.103-.543-1.725.581-.411 1.11-1.077 1.313-2.09.148-.741.118-2.523-.082-3.232-.642-2.271-2.567-2.55-4.418-2.55H42.142c.33-2.014 2.8-4.72 2.015-8.088-.72-3.08-3.44-5.04-5.973-3.483-1.035.637-1.54 1.742-2.26 2.935-.446.74-5.74 9.6-5.99 9.844Z" clip-rule="evenodd"/><path fill="#02345D" fill-rule="evenodd" stroke="#02345D" stroke-width=".7" d="M10.346 41.597c-1.172.36-.848 1.585-.7 2.745.739 5.779 3.076 11.088 6.664 15.523 8.258 10.208 22.315 14.175 34.951 9.46 3.892-1.452 6.769-3.403 9.35-5.553.184-.154.286-.29.475-.443.8-.644 2.497-2.476 3.158-3.285 3.63-4.45 5.896-9.443 6.797-15.559.163-1.11.473-2.411-.523-2.843a1.19 1.19 0 0 0-1.356.298c-.312.366-.3.924-.356 1.475-.759 7.483-4.692 14.522-10.461 19.181-1.38 1.115-2.731 1.999-4.477 2.974-7.157 3.994-16.654 4.483-24.302 1.293-3.892-1.624-6.581-3.59-9.031-5.868-4.543-4.225-7.913-10.807-8.608-17.348-.057-.536-.054-2.52-1.581-2.05ZM38.377 9.44c-4.82.352-7.87 1.362-11.734 3.114-1.808.82-5.3 3.104-6.626 4.423-.362.36-.677.522-.972.87a8 8 0 0 1-.953.973c-.912.795-2.593 2.982-3.313 4.052a33 33 0 0 0-2.68 4.768c-1.173 2.531-2.088 5.797-2.457 8.677-.14 1.094-.42 2.519.74 2.772 1.554.338 1.48-1.486 1.54-2.081.472-4.743 2.475-9.655 5.19-13.394a28.7 28.7 0 0 1 3.473-3.976c8.931-8.463 22.321-10.464 33.276-4.535a30 30 0 0 1 7.759 6.053c.187.204.252.334.456.55 2.246 2.364 4.279 6.354 5.382 9.435.663 1.854 1.112 4.05 1.345 6.131.063.568.03 1.032.38 1.436.301.348.744.525 1.315.303 1.042-.403.693-1.735.521-2.896-.783-5.296-2.823-10.4-5.933-14.405-1.244-1.602-2.966-3.573-4.523-4.851-6.127-5.032-13.633-8.046-22.186-7.42Z" clip-rule="evenodd"/></svg>
